svgs/sharp-solid/square-d.svg

<svg xmlns="http://www.w3.org/2000/svg" viewBox="0 0 448 512"><!--! Font Awesome Pro 6.4.0 by @fontawesome - https://fontawesome.com License - https://fontawesome.com/license (Commercial License) Copyright 2023 Fonticons, Inc. --><path d="M448 32H0V480H448V32zM152 128h72c70.7 0 128 57.3 128 128s-57.3 128-128 128H152 128V360 152 128h24zm24 208h48c44.2 0 80-35.8 80-80s-35.8-80-80-80H176V336z"/></svg>

<svg xmlns="http://www.w3.org/2000/svg" viewBox="0 0 448 512"><!--! Font Awesome Pro 6.6.0 by @fontawesome - https://fontawesome.com License - https://fontawesome.com/license (Commercial License) Copyright 2024 Fonticons, Inc. --><path d="M448 32L0 32 0 480l448 0 0-448zM152 128l72 0c70.7 0 128 57.3 128 128s-57.3 128-128 128l-72 0-24 0 0-24 0-208 0-24 24 0zm24 208l48 0c44.2 0 80-35.8 80-80s-35.8-80-80-80l-48 0 0 160z"/></svg>
